X: 10594
M: C|
L: 1/8
K: D
(FG) |\
|: A2 |\
dcde f2f2 | edef dAFA | dcde fgaf | edef e2A2 |\
dcde f2gf | edef dAFA | BdAF GBAF | Egec d2 :|


